src/22/actions/view-sidetree.svg

<svg xmlns="http://www.w3.org/2000/svg" viewBox="0 0 22 22"><path d="M3 3v16h16V3H3zm1 4h14v11H4V7zm1 1v9h4v-2h4v1.9h4v-4h-4V14H9v-4h4v2h4V8h-4v1H9V8H5zm9 1h2v2h-2V9zm0 4.9h2v2h-2v-2z" fill="currentColor" color="#5d656b"/></svg>

<svg xmlns="http://www.w3.org/2000/svg" viewBox="0 0 22 22">
  <defs id="defs3051">
    <style type="text/css" id="current-color-scheme">
      .ColorScheme-Text {
        color:#5d656b;
      }
      </style>
  </defs>
 <path 
    style="fill:currentColor;fill-opacity:1;stroke:none" 
    d="M 3 3 L 3 19 L 19 19 L 19 3 L 3 3 z M 4 7 L 18 7 L 18 18 L 4 18 L 4 7 z M 5 8 L 5 17 L 9 17 L 9 15 L 13 15 L 13 16.900391 L 17 16.900391 L 17 12.900391 L 13 12.900391 L 13 14 L 9 14 L 9 10 L 13 10 L 13 12 L 17 12 L 17 8 L 13 8 L 13 9 L 9 9 L 9 8 L 5 8 z M 14 9 L 16 9 L 16 11 L 14 11 L 14 9 z M 14 13.900391 L 16 13.900391 L 16 15.900391 L 14 15.900391 L 14 13.900391 z "
	class="ColorScheme-Text"
    />  
</svg>
